X: 30139
T: Old Chestnuts
R: jig
M: 6/8
K: Eminor
E2 B B^AB|E2 B ^A2 B|d2 B BAG|FF/G/A AFD|
E2 B B^AB|E2 B ^A2 B|d2 G B^AB|AGF E2:|
e2 B g2 B|dB^A BB/^c/^d|eBB gBB|a^ga b2 e|
baf g2 B|c2 g e2 c|EGB e2 B|AGF E2:|
e2 g bag|f2 g agf|e2 B ge/f/g|a^ga b2 g|
be/g/b g2 B|ege ^A3|Beg B^AB|AGF E2:|

